src/iconfont/glyphs/bookmark.svg

<svg xmlns="http://www.w3.org/2000/svg" viewBox="0 0 1024 1024"><path fill="currentColor" d="M848.457 1024c-9.363-.189-18.033-2.998-25.352-7.723l.191.115L512 799.304l-311.296 217.088c-6.501 4.018-14.382 6.4-22.821 6.4s-16.32-2.381-23.01-6.509l.189.108c-13.4-7.013-22.574-20.486-23.401-36.171l-.004-.107v-819.2c0-88.87 72.044-160.914 160.914-160.914h438.857c88.87 0 160.914 72.044 160.914 160.914v819.359c0 16.646-9.393 31.099-23.169 38.347l-.237.114c-5.911 3.304-12.965 5.254-20.477 5.266h-.004zM512 702.172c.137-.001.3-.003.464-.003a43.7 43.7 0 0 1 24.846 7.706l-.148-.096 267.411 186.075V160.915c0-40.395-32.747-73.142-73.142-73.142H292.574c-40.395 0-73.142 32.747-73.142 73.142v734.939l267.411-186.075c6.916-4.764 15.475-7.609 24.698-7.609q.244 0 .488.003h-.025z"/></svg>

<?xml version="1.0" encoding="UTF-8" standalone="no"?>
<!DOCTYPE svg PUBLIC "-//W3C//DTD SVG 1.1//EN" "http://www.w3.org/Graphics/SVG/1.1/DTD/svg11.dtd">
<svg width="100%" height="100%" viewBox="0 0 1024 1024" version="1.1" xmlns="http://www.w3.org/2000/svg" xmlns:xlink="http://www.w3.org/1999/xlink" xml:space="preserve" xmlns:serif="http://www.serif.com/" style="fill-rule:evenodd;clip-rule:evenodd;stroke-linejoin:round;stroke-miterlimit:2;">
    <g transform="matrix(0.841347,0,0,0.874999,81.2308,64.0009)">
        <path d="M848.457,1024C839.094,1023.81 830.424,1021 823.105,1016.28L823.296,1016.39L512,799.304L200.704,1016.39C194.203,1020.41 186.322,1022.79 177.883,1022.79C169.444,1022.79 161.563,1020.41 154.873,1016.28L155.062,1016.39C141.662,1009.38 132.488,995.905 131.661,980.22L131.657,980.113L131.657,146.285C131.657,57.415 203.701,-0.001 292.571,-0.001L731.428,-0.001C820.298,-0.001 892.342,57.415 892.342,146.285L892.342,980.272C892.342,996.918 882.949,1011.37 869.173,1018.62L868.936,1018.73C863.025,1022.04 855.971,1023.99 848.459,1024L848.455,1024L848.457,1024ZM512,702.172C512.137,702.171 512.3,702.169 512.464,702.169C521.335,702.156 530.003,704.844 537.31,709.875L537.162,709.779L816.274,895.854L816.274,146.285C816.274,105.89 780.6,73.142 740.205,73.142L286.631,73.142C246.236,73.142 207.726,105.89 207.726,146.285L207.726,898.14L486.843,709.779C493.759,705.015 502.318,702.17 511.541,702.17C511.704,702.17 511.866,702.171 512.029,702.173L512.004,702.173L512,702.172Z" style="fill-rule:nonzero;"/>
    </g>
</svg>
